assets/Man dancing/Light/Flat/man_dancing_flat_light.svg

<svg width="32" height="32" viewBox="0 0 32 32" fill="none" xmlns="http://www.w3.org/2000/svg">
<path d="M21.5567 26.9868V28.3633C21.5567 28.5041 21.6463 28.629 21.7872 28.677L23.2437 29.1764C23.4133 29.234 23.5286 29.3972 23.5286 29.5765C23.5286 29.8102 23.3397 29.9991 23.106 29.9991H20.4139C20.3435 29.9991 20.2794 29.9606 20.2474 29.8966L20.0137 29.4325C19.9657 29.3364 19.8665 29.2756 19.7609 29.2756C19.6136 29.2756 19.492 29.3876 19.4792 29.5349L19.4536 29.8294C19.4472 29.9254 19.3639 29.9991 19.2679 29.9991H18.3012H18.2883C18.1763 29.9894 18.0899 29.8934 18.0963 29.7782L18.2755 26.9868H21.5567ZM11.6271 27V28.3709C11.6271 28.5112 11.7179 28.6355 11.8573 28.6833L13.3327 29.1807C13.5046 29.238 13.6213 29.4006 13.6213 29.5792C13.6213 29.8119 13.43 30 13.1933 30H10.4662C10.3948 30 10.33 29.9617 10.2975 29.898L10.0608 29.4357C10.0122 29.3401 9.91166 29.2795 9.80465 29.2795C9.65549 29.2795 9.53226 29.3911 9.51929 29.5377L9.49335 29.831C9.48686 29.9267 9.40255 30 9.30527 30H8.32921H8.31624C8.20274 29.9904 8.11519 29.8948 8.12168 29.78L8.30327 27H11.6271Z" fill="#433B6B"/>
<path d="M19.6858 6.77271L19.4122 8.30861L14.7226 9.37137C14.092 9.51542 13.6983 10.1396 13.8391 10.7703C13.9607 11.3016 14.4313 11.6826 14.9787 11.6826C15.0651 11.6826 15.1516 11.673 15.238 11.6538L20.6862 10.4181C21.144 10.3157 21.4961 9.94437 21.5794 9.48341L22.0258 6.96175L19.6858 6.77271Z" fill="#0092E7"/>
<path d="M22.3669 3.37885C22.2229 3.3574 22.0847 3.45036 22.0535 3.59314L22.0564 3.57732L20.9552 3.40766L21.1249 2.31288C21.1441 2.15923 21.0352 2.02158 20.8816 2.00238C20.7343 1.98317 20.5999 2.0824 20.5743 2.22645L20.3118 3.91983L20.0845 3.62853C19.9981 3.5165 19.8348 3.49729 19.7228 3.58372C19.6107 3.67015 19.5915 3.8334 19.678 3.94544L19.8988 4.22714C20.0621 4.41016 20.0621 4.6881 20.0621 4.6881L19.9069 5.55812L22.2133 5.88761L22.5878 3.76298L22.5974 3.69576C22.6198 3.5421 22.5173 3.40126 22.3669 3.37885ZM11.2472 15.8132L8.9751 16.3813L9.10767 16.9004C9.11821 16.9421 9.13092 16.9827 9.14566 17.0222L9.322 17.6655L9.34221 17.7293C9.42183 17.9815 9.55177 18.3933 9.72214 18.549C9.93982 18.7475 10.5128 18.7122 10.9226 18.5714C10.9226 18.5714 11.4283 18.3889 11.7164 18.04C11.9373 17.7775 11.6588 17.5022 11.6588 17.5022C11.6588 17.5022 11.694 17.3582 11.7997 17.0029C11.8904 16.6998 11.6386 16.4855 11.3847 16.3518C11.3823 16.3415 11.3799 16.3313 11.3773 16.321L11.2472 15.8132Z" fill="#FFD7C2"/>
<path d="M16.9053 20.268L19.3989 22.3904C19.5398 22.5088 19.5846 22.7073 19.511 22.8769C19.0372 23.9493 17.4623 27.7458 17.4623 27.7458C17.4623 27.7458 18.7683 28.8662 21.5565 28.3604L22.2191 22.2751C22.2735 21.7822 22.1295 21.2892 21.8222 20.8987L18.8355 17.147L16.9053 20.268Z" fill="#007ACF"/>
<path d="M16.7553 9.14086C16.0703 8.69911 15.1612 8.89758 14.7194 9.58261C14.2937 10.242 14.4601 11.1191 15.0972 11.5769L17.1843 13.616L18.087 17.1372C18.087 17.1372 19.6523 17.4221 21.3713 16.1C21.5154 15.9912 21.5666 15.7959 21.4994 15.6295L20.6191 13.4591C20.4462 13.0398 20.1229 12.4252 19.8028 11.8522C19.2554 10.8759 18.4455 10.0724 17.466 9.5378C17.085 9.32012 16.7713 9.15046 16.7553 9.14086Z" fill="#00A6ED"/>
<path d="M13.1024 18.4386C13.009 18.1528 12.9585 17.8477 12.9585 17.5308C12.9585 17.4028 12.9681 17.2747 12.9841 17.1499H18.8325L18.8037 17.5308C18.8037 18.8249 17.9614 19.9233 16.7954 20.3074L14.0469 23.0335C13.6371 23.4401 13.3266 23.9394 13.1442 24.4868L11.7517 28.6355C11.7517 28.6355 9.44369 28.9812 8 27.1533L10.3336 24.0771C11.2235 22.9023 11.9341 21.6058 12.4431 20.223L13.1024 18.4386Z" fill="#0092E7"/>
<path d="M18.3299 11.551C18.0226 10.2033 16.8158 9.25581 15.4362 9.27822C13.8868 9.30063 13.6096 10.5555 13.5616 12.1048C13.5488 12.4665 13.6064 12.8283 13.7248 13.1676L13.728 13.1708C13.7952 13.3628 13.8817 13.5485 13.9873 13.7214C14.3202 14.4256 14.4099 15.2195 14.2402 15.9781L14.0737 16.7272C14.0353 16.8649 14.0065 17.0057 13.9873 17.1497H18.8357L18.8805 16.5671C19.0086 14.877 18.8229 13.174 18.3299 11.551Z" fill="#FF6723"/>
<path d="M14.0532 9.57948C14.6486 9.3266 15.3369 9.60189 15.5897 10.1973C15.7685 10.6152 15.6868 11.0751 15.4208 11.4019C15.6286 11.7094 15.8029 12.0397 15.9389 12.3868C15.9421 12.3996 15.9453 12.4092 15.9517 12.422C16.1726 12.995 16.291 13.6032 16.3006 14.2178C16.3038 14.6019 16.2974 15.0373 16.2718 15.3318L15.9901 18.408C15.9805 18.5169 15.9005 18.6065 15.7916 18.6289C14.1079 18.965 12.9715 18.4208 12.5745 18.1839C12.4785 18.1295 12.4305 18.0175 12.4561 17.9119L12.9042 15.9656C13.0963 15.1173 13.0547 14.2338 12.7826 13.4079L12.5693 12.7659L10.6761 13.5745L10.9308 14.5583L8.85143 15.8824L8.16 13.1807C8.01595 12.6205 8.30085 12.0411 8.83223 11.8138L14.0532 9.57948Z" fill="#00A6ED"/>
<path d="M16.8927 11.2726L16.5502 9.47995C15.7083 9.15024 14.7608 9.22707 13.9861 9.69443L16.5726 11.4838C16.6654 11.5478 16.7967 11.5254 16.8607 11.4294C16.8895 11.3814 16.9023 11.327 16.8927 11.2726Z" fill="#F4C6AD"/>
<path d="M16.2941 14.2242C16.2877 13.6064 16.1725 12.995 15.9484 12.4156L15.9356 12.3868C15.6603 11.689 15.2378 11.0616 14.6904 10.5494L14.4023 10.3989L13.8101 12.1211L15.1577 12.6045C15.1993 12.6205 15.2186 12.6653 15.2057 12.7069C15.1961 12.7293 15.1769 12.7485 15.1545 12.7549L14.4439 12.9694C14.3927 12.9854 14.3639 13.0398 14.3767 13.091C14.3831 13.1103 14.3927 13.1263 14.4087 13.1391C14.8344 13.4912 15.9708 14.7524 15.9964 18.248L16.2653 15.3318C16.2941 15.0405 16.2973 14.6052 16.2941 14.2242Z" fill="#75E0FC"/>
<path d="M19.6841 6.78171L19.985 5.09473L22.2962 5.46606L22.6163 7.0538C22.6419 7.17865 22.5619 7.29709 22.437 7.3227C22.4082 7.3291 22.3762 7.3291 22.3474 7.3227L19.6841 6.78171ZM18.2436 10.8758L16.8415 11.0134L16.5918 9.7074L17.0271 9.34888L18.3332 10.6325C18.3556 10.6581 18.3716 10.6869 18.3748 10.7221C18.3812 10.799 18.3236 10.8694 18.2436 10.8758ZM13.6562 12.1786L16.1882 11.2183L13.9315 9.63379L13.7714 9.70101L13.3553 11.9258C13.3457 11.9674 13.3489 12.0122 13.3649 12.0506C13.4097 12.1658 13.5409 12.2235 13.6562 12.1786ZM11.3548 16.2248L10.929 14.5635L8.28173 15.1685C8.25292 15.1749 8.22411 15.1877 8.1985 15.2069C8.09607 15.2805 8.07366 15.4246 8.14729 15.527L9.09481 16.8427L11.3548 16.2248Z" fill="#F95725"/>
<path d="M17.2862 12.9245C17.4188 12.9245 17.5263 12.817 17.5263 12.6844C17.5263 12.5518 17.4188 12.4443 17.2862 12.4443C17.1536 12.4443 17.0461 12.5518 17.0461 12.6844C17.0461 12.817 17.1536 12.9245 17.2862 12.9245ZM17.5492 14.5475C17.6818 14.5475 17.7892 14.4401 17.7892 14.3075C17.7892 14.1749 17.6818 14.0674 17.5492 14.0674C17.4166 14.0674 17.3091 14.1749 17.3091 14.3075C17.3091 14.4401 17.4166 14.5475 17.5492 14.5475ZM17.8495 16.0711C17.8495 16.2037 17.7421 16.3112 17.6095 16.3112C17.4769 16.3112 17.3694 16.2037 17.3694 16.0711C17.3694 15.9385 17.4769 15.8311 17.6095 15.8311C17.7421 15.8311 17.8495 15.9385 17.8495 16.0711Z" fill="#E6E6E6"/>
<path d="M20.8973 3.76633C20.8749 3.91678 20.9805 4.06083 21.131 4.08324C21.2387 4.09928 21.3431 4.05133 21.402 3.96641C21.4168 4.08681 21.509 4.18931 21.6367 4.20792C21.7903 4.23353 21.9312 4.1279 21.9536 3.97424L22.0144 3.57731C22.0368 3.42685 21.9344 3.2828 21.7807 3.2604C21.6811 3.24556 21.5843 3.28543 21.5238 3.35865C21.5343 3.21577 21.4315 3.08348 21.2878 3.06208C21.1374 3.03967 20.9933 3.14531 20.9709 3.29576L20.8973 3.76633ZM22.2194 4.31356C22.0689 4.29115 21.9633 4.1471 21.9857 3.99665L22.0465 3.59972C22.0689 3.44926 22.2129 3.34363 22.3634 3.36604C22.5139 3.38844 22.6195 3.53249 22.5971 3.68294L22.5395 4.07988C22.5139 4.23353 22.373 4.33597 22.2194 4.31356Z" fill="#F4C6AD"/>
<path d="M14.1302 7.41534C14.1302 7.81489 13.8063 8.13879 13.4068 8.13879C13.0072 8.13879 12.6833 7.81489 12.6833 7.41534C12.6833 7.01579 13.0072 6.69189 13.4068 6.69189C13.8063 6.69189 14.1302 7.01579 14.1302 7.41534ZM18.3683 7.41534C18.3683 7.81489 18.0444 8.13879 17.6448 8.13879C17.2453 8.13879 16.9214 7.81489 16.9214 7.41534C16.9214 7.01579 17.2453 6.69189 17.6448 6.69189C18.0444 6.69189 18.3683 7.01579 18.3683 7.41534Z" fill="#F4C6AD"/>
<path d="M15.2899 4.42993C14.1099 4.42993 13.1799 5.42993 13.2699 6.59993L13.4399 8.95993C13.4999 9.68993 14.0799 10.2199 14.7899 10.2199H16.1499C16.8599 10.2199 17.4399 9.68993 17.5099 8.94993L17.6799 6.59993C17.7599 5.42993 16.8299 4.42993 15.6599 4.42993H15.2899V4.42993Z" fill="#FFD7C2"/>
<path d="M16.7801 6.72984C16.8201 6.75984 16.8701 6.77984 16.9201 6.77984C16.9901 6.77984 17.0601 6.74984 17.1001 6.69984C17.1801 6.58984 17.1601 6.44984 17.0601 6.36984C17.0501 6.34984 16.7001 6.08984 16.1901 6.14984C16.0701 6.16984 15.9701 6.27984 15.9901 6.40984C16.0001 6.53984 16.1201 6.62984 16.2501 6.60984C16.5167 6.57543 16.7094 6.68898 16.7644 6.72143C16.7734 6.7267 16.7801 6.72984 16.7801 6.72984Z" fill="#212121"/>
<path d="M13.8301 6.6898C13.8801 6.7498 13.9501 6.7798 14.0201 6.7798C14.0701 6.7798 14.1201 6.7698 14.1601 6.7398C14.1701 6.7298 14.3801 6.5698 14.7001 6.6098C14.8301 6.6298 14.9401 6.5398 14.9501 6.4098C14.9701 6.2798 14.8801 6.1698 14.7501 6.1498C14.3158 6.09769 13.9947 6.29454 13.8981 6.35373C13.8835 6.36268 13.8741 6.36849 13.8701 6.3698C13.7701 6.4498 13.7501 6.5898 13.8301 6.6898Z" fill="#212121"/>
<path d="M17.69 4.83992L17.51 4.74992C17.39 4.68992 17.27 4.60992 17.17 4.50992L16.82 4.15992C16.56 3.89992 16.17 3.80992 15.82 3.92992C15.59 4.00992 15.35 4.00992 15.12 3.92992C14.81 3.77992 14.44 3.83992 14.2 4.07992L13.77 4.50992C13.67 4.60992 13.55 4.68992 13.43 4.75992L13.25 4.83992C12.92 5.00992 12.74 5.36992 12.8 5.72992L13.04 7.03992C13.06 7.16992 13.18 7.26992 13.31 7.26992C13.31 7.26992 13.28 6.89992 13.27 6.65992C13.26 6.53992 13.31 6.41992 13.4 6.32992L13.48 6.25992C13.59 6.15992 13.65 6.02992 13.65 5.87992V5.51992C13.65 5.41992 13.72 5.32992 13.82 5.29992C14.09 5.22992 14.67 5.11992 15.47 5.11992C16.27 5.11992 16.85 5.23992 17.12 5.29992C17.22 5.32992 17.29 5.41992 17.29 5.51992V5.88992C17.29 6.02992 17.35 6.16992 17.46 6.26992L17.54 6.33992C17.63 6.41992 17.68 6.53992 17.67 6.65992C17.65 6.89992 17.63 7.25992 17.63 7.25992C17.76 7.24992 17.87 7.15992 17.89 7.02992L18.13 5.71992C18.2 5.36992 18.02 5.00992 17.69 4.83992Z" fill="#212121"/>
<path d="M13.8772 7.28108C13.9444 7.00579 14.1941 6.81372 14.4758 6.81372C14.7703 6.81372 15.0232 7.02179 15.0808 7.30989V7.3291C15.0808 7.38672 15.036 7.43153 14.9784 7.43153H13.9957H13.9957C13.9861 7.43153 13.9764 7.43153 13.9668 7.42833C13.9028 7.41233 13.8612 7.3451 13.8772 7.28108ZM17.1873 7.28108C17.1201 7.00579 16.8736 6.81372 16.5887 6.81372C16.2942 6.81372 16.0413 7.02179 15.9805 7.30989V7.3291C15.9805 7.38672 16.0253 7.43153 16.0829 7.43153H17.0688H17.0688C17.0784 7.43153 17.0881 7.43153 17.0977 7.42833C17.1617 7.41233 17.2033 7.3451 17.1873 7.28108Z" fill="white"/>
<path d="M14.1719 7.32906C14.1719 7.10819 14.3479 6.93213 14.5656 6.93213C14.604 6.93213 14.6392 6.93533 14.6713 6.94813C14.8825 7.00896 15.0042 7.22343 14.9465 7.4347H14.1879C14.1783 7.39949 14.1719 7.36428 14.1719 7.32906ZM16.8925 7.32586C16.8925 7.10819 16.7164 6.93213 16.4988 6.93213C16.2811 6.93213 16.105 7.10819 16.1018 7.32586C16.105 7.36108 16.1082 7.39629 16.1178 7.4315H16.8797C16.8893 7.39629 16.8925 7.36108 16.8925 7.32586Z" fill="#7D4533"/>
<path d="M14.5654 7.10181C14.6902 7.10181 14.7927 7.20104 14.7927 7.32588C14.7927 7.3643 14.7831 7.39951 14.7671 7.43472H14.3669C14.3509 7.39951 14.3413 7.3643 14.3413 7.32908C14.3413 7.20424 14.4405 7.10181 14.5654 7.10181ZM16.5022 7.10181C16.3773 7.10181 16.2749 7.20104 16.2749 7.32588C16.2749 7.3643 16.2813 7.39951 16.3005 7.43152H16.7006C16.7167 7.39951 16.7263 7.3643 16.7263 7.32908C16.7263 7.20424 16.627 7.10181 16.5022 7.10181Z" fill="black"/>
<path d="M14.5012 7.17223C14.5012 7.21113 14.4697 7.24266 14.4308 7.24266C14.3919 7.24266 14.3604 7.21113 14.3604 7.17223C14.3604 7.13334 14.3919 7.10181 14.4308 7.10181C14.4697 7.10181 14.5012 7.13334 14.5012 7.17223ZM16.4477 7.17223C16.4477 7.21113 16.4162 7.24266 16.3773 7.24266C16.3384 7.24266 16.3069 7.21113 16.3069 7.17223C16.3069 7.13334 16.3384 7.10181 16.3773 7.10181C16.4162 7.10181 16.4477 7.13334 16.4477 7.17223Z" fill="white"/>
<path d="M15.3657 7.29398L15.1384 8.03343C15.1 8.15828 15.1704 8.28952 15.2953 8.32793C15.3177 8.33434 15.3401 8.33754 15.3625 8.33754H15.7018C15.833 8.33754 15.9355 8.2319 15.9355 8.10066C15.9355 8.07825 15.9323 8.05264 15.9259 8.03023L15.6986 7.29078C15.6698 7.20115 15.5706 7.14993 15.4809 7.18194C15.4233 7.20115 15.3849 7.24276 15.3657 7.29398Z" fill="#E5AF93"/>
<path d="M15.532 8.75682C15.3079 8.75682 15.0902 8.7056 14.8918 8.60316C14.8565 8.58395 14.8149 8.59676 14.7989 8.63197C14.7861 8.65438 14.7893 8.67999 14.8021 8.7024C15.0646 9.10575 15.6024 9.22419 16.0057 8.96169C16.1082 8.89447 16.1978 8.80483 16.265 8.7024C16.2842 8.67038 16.2746 8.62557 16.2426 8.60636C16.2202 8.59356 16.1946 8.59356 16.1722 8.60316C15.9737 8.7056 15.7561 8.75682 15.532 8.75682Z" fill="#990838"/>
</svg>

<svg xmlns="http://www.w3.org/2000/svg" width="32" height="32" fill="none"><path fill="#433B6B" d="M21.557 26.987v1.376c0 .141.09.266.23.314l1.457.5a.422.422 0 0 1-.138.823h-2.692a.185.185 0 0 1-.167-.103l-.233-.464a.282.282 0 0 0-.535.102l-.025.294a.185.185 0 0 1-.186.17h-.98a.21.21 0 0 1-.192-.22l.18-2.792h3.28Zm-9.93.013v1.37c0 .141.09.265.23.313l1.476.498c.172.057.288.22.288.398 0 .233-.191.421-.428.421h-2.727a.188.188 0 0 1-.168-.102l-.237-.462a.289.289 0 0 0-.256-.157.284.284 0 0 0-.286.259l-.026.293a.186.186 0 0 1-.188.169h-.989a.21.21 0 0 1-.194-.22L8.303 27h3.324Z"/><path fill="#0092E7" d="m19.686 6.773-.274 1.536-4.69 1.062a1.17 1.17 0 0 0 .515 2.282l5.45-1.235c.457-.102.81-.474.892-.935l.447-2.521-2.34-.19Z"/><path fill="#FFD7C2" d="M22.367 3.379a.279.279 0 0 0-.314.214l.003-.016-1.1-.17.169-1.094a.278.278 0 0 0-.243-.31.275.275 0 0 0-.308.223l-.262 1.694-.228-.291a.259.259 0 0 0-.361-.045.259.259 0 0 0-.045.361l.22.282c.164.183.164.461.164.461l-.155.87 2.306.33.375-2.125.01-.067a.277.277 0 0 0-.231-.317Zm-11.12 12.434-2.272.568.133.52c.01.041.023.082.038.121l.176.644.02.063c.08.253.21.664.38.82.218.198.79.163 1.2.022 0 0 .506-.182.794-.531.221-.262-.057-.538-.057-.538s.035-.144.14-.5c.091-.302-.16-.517-.414-.65a1.72 1.72 0 0 0-.008-.031l-.13-.508Z"/><path fill="#007ACF" d="M16.905 20.268 19.4 22.39c.14.119.186.317.112.487-.474 1.072-2.049 4.869-2.049 4.869s1.306 1.12 4.095.614l.662-6.085a1.89 1.89 0 0 0-.397-1.376l-2.986-3.752-1.93 3.121Z"/><path fill="#00A6ED" d="M16.755 9.14a1.471 1.471 0 0 0-2.036.443c-.425.659-.259 1.536.378 1.994l2.087 2.039.903 3.521s1.565.285 3.284-1.037a.403.403 0 0 0 .128-.47l-.88-2.17c-.173-.42-.496-1.035-.816-1.608a5.951 5.951 0 0 0-2.337-2.314c-.381-.218-.695-.388-.71-.397Z"/><path fill="#0092E7" d="M13.102 18.439a2.917 2.917 0 0 1-.118-1.29h5.848l-.028.382a2.925 2.925 0 0 1-2.009 2.776l-2.748 2.727c-.41.406-.72.905-.903 1.453l-1.392 4.149S9.444 28.98 8 27.152l2.334-3.076c.89-1.175 1.6-2.471 2.11-3.854l.658-1.784Z"/><path fill="#FF6723" d="M18.33 11.551a2.92 2.92 0 0 0-2.894-2.273c-1.55.023-1.826 1.277-1.874 2.827a2.92 2.92 0 0 0 .163 1.063l.003.003c.067.192.154.378.26.55.332.705.422 1.498.252 2.257l-.166.75a3.092 3.092 0 0 0-.087.422h4.849l.045-.583a13.704 13.704 0 0 0-.551-5.016Z"/><path fill="#00A6ED" d="M14.053 9.58a1.173 1.173 0 0 1 1.368 1.822 5.05 5.05 0 0 1 .53 1.02c.222.573.34 1.181.35 1.796.003.384-.004.82-.03 1.114l-.28 3.076a.248.248 0 0 1-.2.22c-1.683.337-2.82-.207-3.216-.444a.247.247 0 0 1-.119-.272l.448-1.946a4.79 4.79 0 0 0-.121-2.558l-.214-.642-1.893.809.255.983-2.08 1.324-.691-2.701c-.144-.56.14-1.14.672-1.367l5.221-2.235Z"/><path fill="#F4C6AD" d="M16.893 11.273 16.55 9.48a2.909 2.909 0 0 0-2.564.214l2.587 1.79a.207.207 0 0 0 .288-.055.227.227 0 0 0 .032-.156Z"/><path fill="#75E0FC" d="M16.294 14.224a5.154 5.154 0 0 0-.346-1.808l-.012-.03a5.048 5.048 0 0 0-1.246-1.837l-.288-.15-.592 1.722 1.348.483c.041.017.06.061.048.103a.084.084 0 0 1-.051.048l-.711.214a.102.102 0 0 0-.067.122c.006.02.016.035.032.048.425.352 1.562 1.613 1.587 5.109l.27-2.916c.028-.292.031-.727.028-1.108Z"/><path fill="#F95725" d="m19.684 6.782.301-1.687 2.311.371.32 1.588a.227.227 0 0 1-.269.269l-2.663-.541Zm-1.44 4.094-1.402.137-.25-1.306.435-.358 1.306 1.284a.156.156 0 0 1 .042.09.143.143 0 0 1-.131.153Zm-4.588 1.303 2.532-.96-2.256-1.585-.16.067-.417 2.225a.207.207 0 0 0 .01.125.226.226 0 0 0 .291.128Zm-2.301 4.046-.426-1.662-2.647.605a.23.23 0 0 0-.134.358l.947 1.317 2.26-.618Z"/><path fill="#E6E6E6" d="M17.286 12.925a.24.24 0 1 0 0-.48.24.24 0 0 0 0 .48Zm.263 1.622a.24.24 0 1 0 0-.48.24.24 0 0 0 0 .48Zm.3 1.524a.24.24 0 1 1-.48 0 .24.24 0 0 1 .48 0Z"/><path fill="#F4C6AD" d="M20.897 3.766a.28.28 0 0 0 .234.317.28.28 0 0 0 .271-.117c.015.12.107.223.235.242a.274.274 0 0 0 .317-.234l.06-.397a.278.278 0 0 0-.49-.218.28.28 0 0 0-.236-.297.28.28 0 0 0-.317.234l-.074.47Zm1.322.548a.28.28 0 0 1-.233-.317l.06-.397a.28.28 0 0 1 .317-.234.28.28 0 0 1 .234.317l-.058.397a.281.281 0 0 1-.32.234ZM14.13 7.415a.723.723 0 1 1-1.447 0 .723.723 0 0 1 1.447 0Zm4.238 0a.723.723 0 1 1-1.447 0 .723.723 0 0 1 1.447 0Z"/><path fill="#FFD7C2" d="M15.29 4.43c-1.18 0-2.11 1-2.02 2.17l.17 2.36c.06.73.64 1.26 1.35 1.26h1.36c.71 0 1.29-.53 1.36-1.27l.17-2.35c.08-1.17-.85-2.17-2.02-2.17h-.37Z"/><path fill="#212121" d="M16.78 6.73a.234.234 0 0 0 .32-.03c.08-.11.06-.25-.04-.33-.01-.02-.36-.28-.87-.22-.12.02-.22.13-.2.26.01.13.13.22.26.2.267-.035.46.079.514.111l.016.009ZM13.83 6.69c.05.06.12.09.19.09.05 0 .1-.01.14-.04a.75.75 0 0 1 .54-.13c.13.02.24-.07.25-.2.02-.13-.07-.24-.2-.26-.434-.052-.755.145-.852.204l-.028.016c-.1.08-.12.22-.04.32Z"/><path fill="#212121" d="m17.69 4.84-.18-.09c-.12-.06-.24-.14-.34-.24l-.35-.35a.972.972 0 0 0-1-.23c-.23.08-.47.08-.7 0a.805.805 0 0 0-.92.15l-.43.43c-.1.1-.22.18-.34.25l-.18.08c-.33.17-.51.53-.45.89l.24 1.31c.02.13.14.23.27.23 0 0-.03-.37-.04-.61-.01-.12.04-.24.13-.33l.08-.07a.5.5 0 0 0 .17-.38v-.36c0-.1.07-.19.17-.22.27-.07.85-.18 1.65-.18.8 0 1.38.12 1.65.18.1.03.17.12.17.22v.37c0 .14.06.28.17.38l.08.07c.09.08.14.2.13.32-.02.24-.04.6-.04.6.13-.01.24-.1.26-.23l.24-1.31a.818.818 0 0 0-.44-.88Z"/><path fill="#fff" d="M13.877 7.281a.616.616 0 0 1 1.204.029v.02a.101.101 0 0 1-.103.102h-.982c-.01 0-.02 0-.03-.004a.124.124 0 0 1-.089-.147Zm3.31 0a.614.614 0 0 0-.598-.467.623.623 0 0 0-.608.496v.02c0 .057.044.102.102.102h.986c.01 0 .02 0 .029-.004a.124.124 0 0 0 .09-.147Z"/><path fill="#7D4533" d="M14.172 7.33a.394.394 0 1 1 .774.105h-.758a.403.403 0 0 1-.016-.106Zm2.72-.004a.393.393 0 0 0-.393-.394.398.398 0 0 0-.397.394c.003.035.006.07.016.106h.762a.398.398 0 0 0 .012-.106Z"/><path fill="#000" d="M14.565 7.102c.125 0 .228.099.228.224 0 .038-.01.074-.026.109h-.4a.256.256 0 0 1-.026-.106c0-.125.1-.227.224-.227Zm1.937 0a.225.225 0 0 0-.201.33h.4a.225.225 0 0 0-.198-.33Z"/><path fill="#fff" d="M14.501 7.172a.07.07 0 1 1-.14 0 .07.07 0 0 1 .14 0Zm1.947 0a.07.07 0 1 1-.141 0 .07.07 0 0 1 .14 0Z"/><path fill="#E5AF93" d="m15.366 7.294-.228.74a.236.236 0 0 0 .225.304h.339a.234.234 0 0 0 .233-.237.267.267 0 0 0-.01-.07l-.226-.74a.17.17 0 0 0-.218-.11.182.182 0 0 0-.115.113Z"/><path fill="#990838" d="M15.532 8.757c-.224 0-.442-.051-.64-.154-.035-.02-.077-.006-.093.029-.013.022-.01.048.003.07a.87.87 0 0 0 1.463 0 .071.071 0 0 0-.022-.096.078.078 0 0 0-.07-.003 1.388 1.388 0 0 1-.641.154Z"/></svg>
